X: 28424
T: Mull River
R: reel
M: 4/4
K: Amajor
E2|"A"A2 cA eAcA|"Bm "dcBc "E"defg|"A"ae a/a/a "D"fgaf|"E"gabg "A"afec|
"A"A2 cA eAcA|"Bm "dcBc "E"defg|"A"ae a/a/a "D"fgaf|"E"gabg "A"a2:|
|:ab|"A"c'a a/a/a "E"gabg|"A"aefd caec|"D"fB B/B/B "Bm"dfbd|"A"eac'e "E"e'eab|
"A"c'afa "E"egbg|"D"afdf "A"Acea|"Bm"dcBc "E"degb|"A"afec A2:|

